!!!COM: Anon.
!!!OTL: Riukiu-Bushi
!!!OTC: Japanese Popular Music: A Collection of The Popular Music of Japan Rendered in to the Staff notation.
!!!CNT: Nippon, Japanese
!!!TXO: Nippon, Japan
!!!OCY: Nippon, Japan
!!!ODT: <1892///
!!!PSR: S. Miki & Co.
!!!PSP: Osaka, Nippon
!!!PDT: 1892///
!!!PPE: Y Nagai & K. Kobatake
!!!PED: Revised Second Edition
!!!PPG: page 13
!! Andante
**kern	**silbe
*ICstr	*Lnippon
*ICvox	*
*Ikoto	*
*Ivox	*
*clefG2	*
*k[]	*
*M2/4	*
=1-	=1-
8G	.
8f	.
8g	.
16g	.
16g	.
=2	=2
8G	.
8f	.
8g	.
16g	.
16g	.
=3	=3
8G	.
8f	.
8g	.
16g	.
16g	.
=4	=4
8g	.
8a	.
8cc	.
16dd	.
16cc	.
=5	=5
8d	.
8a	.
8g	.
8a	.
=6	=6
8f	.
8d	.
8f	.
8g	.
=7	=7
8cc	.
8a	.
8a	.
8g	.
=8	=8
8f	.
8g	.
8.d	.
16c	.
=9	=9
8d	.
8f	.
8g	.
16g	.
16f	.
=10	=10
8g	.
8a	.
8c	.
16cc	.
16cc	.
=11	=11
8cc	.
16dd	.
16dd	.
8cc	.
8a	.
=12	=12
8g	.
8g	.
8r	.
8a	.
=13	=13
8r	.
8cc	.
8r	.
8dd	.
=14	=14
8r	.
8a	.
8cc	.
8cc	.
=15	=15
8c	.
16dd	.
16dd	.
8dd	.
8dd	.
=16	=16
8cc	.
8a	.
8g	.
8a	.
=17	=17
8cc	.
8a	.
16g	.
16g	.
16a	.
16g	.
=18	=18
8G	.
8f	.
8g	.
16g	.
16g	.
=19	=19
8G	.
8f	.
8g	.
16a	.
16g	.
=20	=20
8G	.
8f	.
8g	.
16c 16cc	.
16c 16cc	.
=21	=21
8c 8cc	.
8a	.
16g	.
16g	.
16a	.
16g	.
!! repeat from the beginning
=22	=22
8G	.
8f	.
8g	.
16g	.
16g	.
=23	=23
8G	.
8f	.
8g	.
16g	.
16g	.
=24	=24
8G	.
8f	.
8g	.
16g	.
16g	.
=25	=25
8g	.
8a	.
8cc	.
16dd	.
16cc	.
=26	=26
8d	.
8a	.
8g	.
8a	.
=27	=27
8f	.
8d	.
8f	.
8g	.
=28	=28
8cc	.
8a	.
8a	.
8g	.
=29	=29
8f	.
8g	.
8.d	.
16c	.
=30	=30
8d	.
8f	.
8g	.
16g	.
16f	.
=31	=31
8g	.
8a	.
8c	.
16cc	.
16cc	.
=32	=32
8cc	.
16dd	.
16dd	.
8cc	.
8a	.
=33	=33
8g	.
8g	.
8r	.
8a	.
=34	=34
8r	.
8cc	.
8r	.
8dd	.
=35	=35
8r	.
8a	.
8cc	.
8cc	.
=36	=36
8c	.
16dd	.
16dd	.
8dd	.
8dd	.
=37	=37
8cc	.
8a	.
8g	.
8a	.
=38	=38
8cc	.
8a	.
16g	.
16g	.
16a	.
16g	.
=39	=39
8G	.
8f	.
8g	.
16g	.
16g	.
=40	=40
8G	.
8f	.
8g	.
16a	.
16g	.
=41	=41
8G	.
8f	.
8g	.
16c 16cc	.
16c 16cc	.
=42	=42
8c 8cc	.
8a	.
16g	.
16g	.
16a	.
16g	.
=43	=43
8G	.
8f	.
4g	.
==	==
*-	*-
!!!ENC: David Huron
!!!RDT: 2000/1/30
!!!EEV: Release 1.0
!!!ELF: 5/28
!!!YER: 2000/2/1
!!!YEM: Copyright David Huron, 2000
!!!YEN: United States of America
